X:375
T: Rockcorry Depot
C: BB
L: 1/8
M: 4/4
R: reel
Q: 1/4=175
K: D
A|"D"DEFA dfed|"C"=c2 Bc "Am"AGEG|"D"DF ~F2 "C"G=c ~c2|"D"Adfa "A"ge^cA|
"D"DFAd fagf|"Am"e2 =ce AcGE|"Bm"FAdA "Em"Bege|"A"cAGE "D"D3 :|
e|"D"defd "Am"=cAAc|"G"BGBd "D"AFED|"Bm"FA ~A2 "C"G=c ~c2|"D"Adfd "A"eage|
"D"defd "Am"=cAAc|"G"BGBd "D"AFED|"Bm"FAdA "G"Bdgf|"A"efd^c "D"d3 :|
